X:209
T:Maids of Mitchelstown
Z: id:dc-reel-191
M:C
L:1/8
K:D Dorian
D2AG EGG2|AcGc cAGE|D2AG EGG2|AcGE EDDC:|!
EGAB c3A|d2de f2ed|cAGE FEFG|AcGE EDDC|!
EGAB c3A|d2de f2ed|cAGE FEFG|AddB cAGE|]!

